fs/folder_link_20_filled.svg

<svg viewBox="0 0 20 20" fill="none" xmlns="http://www.w3.org/2000/svg" height="1em" width="1em">
  <path d="M9.38572 4.28909L8.06667 3.3C7.80702 3.10527 7.49122 3 7.16667 3H4.5C3.11929 3 2 4.11929 2 5.5V6.50001H7.07069C7.20774 6.50001 7.33879 6.44375 7.43319 6.34439L9.38572 4.28909ZM10.5647 4.5L8.15819 7.03314C7.875 7.33123 7.48186 7.50001 7.07069 7.50001H2V14.5C2 15.8807 3.11929 17 4.5 17H6.75777C6.27914 16.285 6 15.4251 6 14.5C6 12.0147 8.01472 10 10.5 10H15.5C16.4251 10 17.285 10.2791 18 10.7578V7L17.9947 6.83562C17.91 5.53154 16.8255 4.5 15.5 4.5H10.5647ZM8 14.5C8 13.1193 9.11929 12 10.5 12H11.5C11.7761 12 12 11.7761 12 11.5C12 11.2239 11.7761 11 11.5 11H10.5C8.567 11 7 12.567 7 14.5C7 16.433 8.567 18 10.5 18H11.5C11.7761 18 12 17.7761 12 17.5C12 17.2239 11.7761 17 11.5 17H10.5C9.11929 17 8 15.8807 8 14.5ZM18 14.5C18 13.1193 16.8807 12 15.5 12H14.5C14.2239 12 14 11.7761 14 11.5C14 11.2239 14.2239 11 14.5 11H15.5C17.433 11 19 12.567 19 14.5C19 16.433 17.433 18 15.5 18H14.5C14.2239 18 14 17.7761 14 17.5C14 17.2239 14.2239 17 14.5 17H15.5C16.8807 17 18 15.8807 18 14.5ZM10 14.5C10 14.2239 10.2239 14 10.5 14H15.5C15.7761 14 16 14.2239 16 14.5C16 14.7761 15.7761 15 15.5 15H10.5C10.2239 15 10 14.7761 10 14.5Z" fill="#212121"/>
</svg>

<svg viewBox="0 0 20 20" fill="none" xmlns="http://www.w3.org/2000/svg" height="1em" width="1em">
  <path d="m9.386 4.29-1.32-.99a1.5 1.5 0 0 0-.9-.3H4.5A2.5 2.5 0 0 0 2 5.5v1h5.07a.5.5 0 0 0 .363-.156L9.386 4.29Zm1.179.21L8.158 7.033a1.5 1.5 0 0 1-1.087.467H2v7A2.5 2.5 0 0 0 4.5 17h2.258a4.5 4.5 0 0 1 3.742-7h5c.925 0 1.785.28 2.5.758V7l-.005-.164A2.5 2.5 0 0 0 15.5 4.5h-4.935ZM8 14.5a2.5 2.5 0 0 1 2.5-2.5h1a.5.5 0 0 0 0-1h-1a3.5 3.5 0 1 0 0 7h1a.5.5 0 0 0 0-1h-1A2.5 2.5 0 0 1 8 14.5Zm10 0a2.5 2.5 0 0 0-2.5-2.5h-1a.5.5 0 0 1 0-1h1a3.5 3.5 0 1 1 0 7h-1a.5.5 0 0 1 0-1h1a2.5 2.5 0 0 0 2.5-2.5Zm-8 0a.5.5 0 0 1 .5-.5h5a.5.5 0 0 1 0 1h-5a.5.5 0 0 1-.5-.5Z" fill="#212121"/>
</svg>
